src/lib/packages/icons/src/assets/filled/like-square.svg

<svg width="24" height="24" viewBox="0 0 24 24" fill="none" xmlns="http://www.w3.org/2000/svg">
<path d="M17.625 3H6.375C4.125 3 3 4.125 3 6.375V17.625C3 19.875 4.125 21 6.375 21H17.625C19.875 21 21 19.875 21 17.625V6.375C21 4.125 19.875 3 17.625 3ZM9 15.95C9 16.116 8.86595 16.25 8.69995 16.25H8.04004C7.60404 16.25 7.25 15.896 7.25 15.46V11.76C7.25 11.325 7.60504 10.97 8.04004 10.97H8.69995C8.86595 10.97 9 11.104 9 11.27V15.95ZM16.619 12L15.559 15.17C15.349 15.81 15.119 16.25 14.059 16.25H10.299C10.133 16.25 9.99902 16.116 9.99902 15.95V10.688C9.99902 10.656 10.004 10.625 10.014 10.594L11.099 7.28998C11.229 6.94998 11.549 6.75 11.889 6.75C12.049 6.75 12.209 6.79001 12.349 6.89001C12.789 7.18001 13.049 7.68002 13.049 8.21002V9.91998H15.119C16.699 9.91998 16.959 10.98 16.619 12Z" fill="currentColor"/>
</svg>

<svg xmlns="http://www.w3.org/2000/svg" width="24" height="24" fill="none"><path fill="currentColor" d="M17.625 3H6.375C4.125 3 3 4.125 3 6.375v11.25C3 19.875 4.125 21 6.375 21h11.25C19.875 21 21 19.875 21 17.625V6.375C21 4.125 19.875 3 17.625 3ZM9 15.95a.3.3 0 0 1-.3.3h-.66a.79.79 0 0 1-.79-.79v-3.7c0-.435.355-.79.79-.79h.66a.3.3 0 0 1 .3.3v4.68ZM16.619 12l-1.06 3.17c-.21.64-.44 1.08-1.5 1.08h-3.76a.3.3 0 0 1-.3-.3v-5.262c0-.032.005-.063.015-.094l1.085-3.304a.84.84 0 0 1 .79-.54c.16 0 .32.04.46.14.44.29.7.79.7 1.32v1.71h2.07c1.58 0 1.84 1.06 1.5 2.08Z"/></svg>
